static/ATL.svg

<?xml version="1.0" encoding="UTF-8" standalone="no"?>
<svg width="150px" height="150px" viewBox="0 0 150 150" version="1.1" xmlns="http://www.w3.org/2000/svg" xmlns:xlink="http://www.w3.org/1999/xlink">
    <!-- Generator: Sketch 39.1 (31720) - http://www.bohemiancoding.com/sketch -->
    <title>ATL</title>
    <desc>Created with Sketch.</desc>
    <defs>
        <polygon id="path-1" points="0 99.7548827 99.8810036 99.7548827 99.8810036 0.0996756178 0 0.0996756178"></polygon>
    </defs>
    <g id="Page-1" stroke="none" stroke-width="1" fill="none" fill-rule="evenodd">
        <g id="ATL">
            <g id="Page-1">
                <g id="Group-3" transform="translate(25.000000, 25.020209)">
                    <mask id="mask-2" fill="white">
                        <use xlink:href="#path-1"></use>
                    </mask>
                    <g id="Clip-2"></g>
                    <path d="M86.6231111,15.7852967 C77.2714265,5.81484171 63.656086,0.0977019217 49.2625376,0.0977019217 C48.0325735,0.0977019217 46.7960143,0.137175844 45.5726452,0.222702677 C22.3484158,1.79508059 11.1204588,18.2557063 9.95644444,20.0682173 C8.24504659,22.239283 -6.49473835,42.0946661 3.37794982,69.5323318 L3.56260932,70.1244406 C3.65823656,70.420495 13.2704229,99.7561985 47.6368746,99.7561985 L47.6434695,99.7561985 C49.4834695,99.7561985 51.3993118,99.6706717 53.3283441,99.499618 C78.9927168,97.2528939 98.08519,78.331727 99.7603154,53.5026297 C100.71329,39.2360962 96.0473405,25.8412784 86.6231111,15.7852967" id="Fill-1" fill="#FEFEFE" mask="url(#mask-2)"></path>
                </g>
                <path d="M101.511355,86.2034768 C104.996803,78.5586938 103.242538,70.2461436 97.3697061,63.6868934 C95.737448,61.8678035 93.7028961,60.6276644 91.7342939,59.4269993 C90.4548674,58.6473893 89.129276,57.8414634 87.9421792,56.8842208 C87.3849032,56.4335602 86.926552,55.8282933 86.4418208,55.1835526 C85.8383799,54.3842057 85.1557993,53.4763055 84.1764444,52.7690643 C78.7322867,48.841409 72.3285591,47.4039004 66.0039713,45.5387575 C63.0164444,44.6604627 60.1080573,44.009143 57.3711398,43.0387424 C60.7477706,40.696623 65.0938638,39.183456 69.8323584,38.7229269 C71.3228244,38.5781892 72.8099928,38.5025308 74.2608889,38.5025308 C88.2323584,38.5025308 100.433075,45.5223101 106.902753,57.27896 C113.379025,69.0586364 112.953649,83.3514859 105.781606,94.5851064 C98.4150108,106.12465 85.3470538,112.262845 70.5578065,111.045732 C61.710638,110.322043 52.2831111,105.637805 49.381319,100.680538 C51.1784516,99.5785576 67.3328602,91.0357428 78.3860502,94.4765531 C81.5549391,94.4864215 76.4866953,102.141073 76.4866953,102.141073 C76.4866953,102.141073 94.9328602,100.621327 101.511355,86.2034768 M109.168129,43.015716 C99.5394552,32.7524961 85.2811039,27.4827274 70.729276,28.466286 C47.6303513,30.0353744 37.3850466,47.1703463 37.3850466,47.1703463 C37.3850466,47.1703463 55.6861219,52.7032745 58.2087025,53.4828844 C59.9201004,54.0157824 71.3459068,56.8315889 76.4965878,59.6605533 C77.5715699,60.2493727 78.626767,61.4303009 79.6654767,62.5322812 C80.4370896,63.3480756 81.1625376,64.1211066 81.9176631,64.7395314 C83.2696344,65.8448012 84.5952258,66.8020438 85.8746523,67.7263915 C89.0501362,70.015879 91.7903513,71.9895752 93.0631828,74.9961723 C94.1678423,77.6080301 94.2107097,80.3152833 93.18519,82.8317459 C92.2948674,85.0225486 90.6197419,86.9732183 88.5390251,88.3087527 C88.7500645,87.2001933 89.0336487,85.6146574 87.5332903,84.6278094 C86.8935771,84.2100437 83.4378065,83.3975388 81.1262652,83.1672742 C80.0216057,83.052142 67.6560143,82.4764806 50.4859785,91.723247 C55.6366595,84.8745214 59.3232545,83.7330671 59.3232545,83.7330671 C59.1847599,82.9074042 31.5484875,94.0752349 31.5484875,94.0752349 C31.5484875,94.0752349 41.0815341,124.539235 77.9804588,121.302373 C101.986194,119.193808 119.871785,101.680544 121.441391,78.3021133 C122.338308,64.9467695 117.979025,52.413799 109.168129,43.015716" id="Fill-4" fill="#E0393D"></path>
                <path d="M74.1682294,63.0349158 C68.236043,63.2684699 62.7819928,56.1565848 58.2050753,60.8145077 C59.0921004,61.0381932 60.895828,60.3506891 61.1761147,61.1829309 C58.8250036,70.3770654 74.0660072,72.7455008 74.1682294,63.0349158" id="Fill-6" fill="#E0393D"></path>
                <rect id="Rectangle" x="0" y="0" width="150" height="150"></rect>
            </g>
        </g>
    </g>
</svg>

<svg xmlns="http://www.w3.org/2000/svg" xmlns:xlink="http://www.w3.org/1999/xlink" width="150" height="150"><defs><path id="A" d="M0 99.755h99.88V.1H0z"/></defs><g fill="none" fill-rule="evenodd"><g transform="translate(25 25.02)"><mask id="B" fill="#fff"><use xlink:href="#A"/></mask><path d="M86.623 15.785C77.27 5.815 63.656.098 49.263.098c-1.23 0-2.467.04-3.7.125C22.348 1.795 11.12 18.256 9.956 20.068c-1.71 2.17-16.45 22.026-6.578 49.464l.185.592c.096.296 9.708 29.632 44.074 29.632h.007a64.71 64.71 0 0 0 5.685-.257c25.664-2.247 44.757-21.168 46.432-45.997.953-14.267-3.713-27.66-13.137-37.717" fill="#fefefe" mask="url(#B)"/></g><path d="M101.5 86.203c3.485-7.645 1.73-15.957-4.142-22.517-1.632-1.82-3.667-3.06-5.635-4.26-1.28-.78-2.605-1.586-3.792-2.543-.557-.45-1.016-1.056-1.5-1.7-.603-.8-1.286-1.707-2.265-2.414-5.444-3.928-11.848-5.365-18.172-7.23-2.988-.878-5.896-1.53-8.633-2.5 3.377-2.342 7.723-3.855 12.46-4.316a46.06 46.06 0 0 1 4.43-.22c13.97 0 26.172 7.02 32.642 18.776 6.476 11.78 6.05 26.073-1.12 37.306-7.367 11.54-20.435 17.678-35.224 16.46-8.847-.724-18.275-5.408-21.176-10.365 1.797-1.102 17.952-9.645 29.005-6.204 3.17.01-1.9 7.665-1.9 7.665s18.446-1.52 25.025-15.938m7.657-43.188c-9.63-10.263-23.887-15.533-38.44-14.55-23.1 1.57-33.344 18.704-33.344 18.704L58.2 53.482c1.7.533 13.137 3.35 18.288 6.178 1.075.6 2.13 1.77 3.17 2.872.772.816 1.497 1.6 2.252 2.207 1.352 1.105 2.678 2.063 3.957 2.987 3.175 2.3 5.916 4.263 7.2 7.27 1.105 2.612 1.148 5.32.122 7.836-.9 2.2-2.565 4.14-4.646 5.477.2-1.1.495-2.694-1.006-3.68-.64-.418-4.095-1.23-6.407-1.46-1.105-.115-13.47-.7-30.64 8.556 5.15-6.85 8.837-8 8.837-8-.138-.826-27.775 10.342-27.775 10.342s9.533 30.464 46.432 27.227c24.006-2.1 41.9-19.622 43.46-43 .897-13.355-3.462-25.888-12.273-35.286M74.168 63.035c-5.932.234-11.386-6.878-15.963-2.22.887.224 2.7-.464 2.97.368-2.35 9.194 12.9 11.563 12.992 1.852" fill="#e0393d"/></g></svg>
